X: 41
T: Kumingui quan buhe ren yiyang
%%abc-version 2.0
%%abcx-abcm2ps-target-version 5.9.1 (29 Sep 2008)
%%abc-creator hum2abc beta
%%abcx-conversion-date 2013/10/02 07:52:29
%%abc-edited-by Helmut Schaffrath
%%humdrum-veritas 695100105
%%humdrum-veritas-data 135753358
%%continueall 1
%%barnumbers 0
L: 1/16
M: 2/4
K: Bb
f' f' d'2 f2 g b [I:setbarnb 1]| 
f g f dc4 | 
f'2 d' b f g f' d' | 
c'8 | 
f'2 d'2 f2 g b | 
f g f d2< c2 c | 
f'2 d' b f g f' d' | 
f8 |]  



